X:1
T:Caroline
C:Laurence Beaudry
Z:robin.beech@mcgill.ca
R:jig
M:6/8
L:1/8
K:Bm
EF |: GEB GBd | cAE B,EF | GEB GBd | cBA B2c |
dBf dfB | gec Aec | GBd cAE | FAc B2A |
GEB GBd |cAE B,EF | GEB GBd | cBA B2c | 
dBf geg | Ace fdf | GBd ecE | FAc BGF |:
E2B GEB, | DFA dfa | gee beg | fdA FGF | 
E2B GBd | cAc dfa | bgb afd |1 BGF EGF :|2 BGF E3 |]
